!!!OTL: Geming shengli zaixiangfeng
!!!ARE: Asia, China,ÿHunan Chaling
!! I, 527
!!!SCT: C2191
!!!YEM: Copyright 1995, estate of Helmut Schaffrath.
**kern
*ICvox
*Ivox
*M2/4
*k[f#]
*G:
{4b
4dd
=1
4b
4dd
=2
8b
8a
8dd
8g
=3
2a}
=4
{8b
8b
8dd
8b
=5
2a
=6
4g
8a
8b
=7
4a
4g
=8
8e
8g
8d
8e
=9
2g}
=10
{4.a
8b
=11
8a
8g
4e
=12
8e
8e
8g
8e
=13
2d}
==
!!!AGN: Xiaodiao, Ganzi shushang dabaihua
!!!ONB: ESAC (Essen Associative Code) Database: SENGANSU
!!!AMT: simple duple
!!!AIN: vox
!!!EED: Helmut Schaffrath
!!!EEV: 1.0
*-
